!!!COM: Beethoven, Ludwig van
!!!CDT: 1770///-1827///
!!!OTL: Piano Sonata no. 1 in F minor
!!!OMD: Adagio
!!!OPS: 2
!!!ONM: 1
!!!OMV: 2
**kern	**kern	**dynam
*Ipiano	*Ipiano	*Ipiano
*clefF4	*clefG2	*
*k[b-]	*k[b-]	*
*F:	*F:	*
*M3/4	*M3/4	*
*MM40	*MM40	*
!	!LO:TX:b:i:t=dolce	!
4r	8.cL	.
.	16cJk	.
=1	=1	=1
*^	*	*
(4c	2F	(4aSsS	p
.	.	(ccq8	.
8dL	.	8b-L)	.
8c	.	8a	.
8B-	4F	8g	.
8AJ)	.	8fJ)	.
=2	=2	=2	=2
(4A	4.C	(4f	.
8G)	.	8e)	.
*v	*v	*	*
8r	(8cL	.
4r	8B 8d	.
.	8B-) 8eJ	.
=3	=3	=3
4A 4c	(>8fL	.
.	16ccJk)	.
.	16r	.
*	*^	*
4E 4c	(8ccL	4g	.
.	16b-Jk)	.	.
.	16r	.	.
4F 4c	(8b-L	4f	.
.	16aJk)	.	.
.	16r	.	.
*	*v	*v	*
=4	=4	=4
4.C 4.c	(4f 4a	.
.	16e) 16g	.
.	(16cLL	.
8r	16d	.
.	16eJJ	.
4r	16fLL	.
.	16f#	.
.	16g	.
.	16g#JJ)	.
=5	=5	=5
*^	*	*
(4c	2F	(4aSsS	.
.	.	(ccq8	.
8dL	.	8b-L)	.
8c	.	8f 8a	.
8B-	4F	8e 8g	.
8AJ)	.	8fJ)	.
*v	*v	*	*
=6	=6	=6
4B- 4d	4f (4dd	.
4c 4d	4g 4ee	.
*	*^	*
4A 4f	16ggLL	4cc	.
.	16ff	.	.
.	16ee	.	.
.	16ffJJ)	.	.
*	*v	*v	*
=7	=7	=7
4B- 4f	(16eeLL>	.
.	16dd	.
.	16cc	.
.	16b-JJ)	.
4c 4f	8.aSsSL	.
.	16aJk	.
(16CLL	(16ccLL	.
16E	16b-	.
16G	16g	.
16B-JJ)	16eJJ)	.
=8	=8	=8
[4F (4B-	(4e 4g	.
8F] 8A)	8f)	.
8r	8r	.
4r	(8.ccL	.
.	16ffJk)	.
=9	=9	=9
*^	*	*
(16GLL	2.C	(4ff	.
16B-	.	.	.
16c	.	.	.
16B-JJ	.	.	.
16GLL	.	4ee	.
16B-	.	.	.
16c	.	.	.
16B-JJ	.	.	.
16FLL	.	8.ffSSsL	.
16A	.	.	.
16c	.	.	.
16AJJ)	.	16aaJk)	.
=10	=10	=10	=10
(16ELL	2.C	(4ccc	sf
16G	.	.	.
16c	.	.	.
16GJJ	.	.	.
16ELL	.	16bbLL	.
16G	.	16ccc	.
16c	.	16ddd	.
16GJJ	.	16cccJJ	.
16FLL	.	16bb-LL	.
16A	.	16aa	.
16c	.	16gg	.
16AJJ)	.	16ffJJ)	.
=11	=11	=11	=11
(16GLL	2.C	(4ff	.
16B-	.	.	.
16c	.	.	.
16B-JJ	.	.	.
16GLL	.	4ee	.
16B-	.	.	.
16c	.	.	.
16B-JJ	.	.	.
16ALL	.	16.ffSSsLL	.
16c	.	.	.
.	.	32ggk	.
16A	.	16.aaSsS	.
16FJJ)	.	.	.
.	.	32bbJJk)	.
*v	*v	*	*
=12	=12	=12
(16CLL	8dddL	.
16E	.	.
16G	[8cccJ	.
16cJJ	.	.
*clefG2	*	*
16eLL	16cccLL]	pp
16g	(16bb	.
16c	16ddd	.
16eJJ	16cccJJ	.
16dLL	16cccLL	.
16f	16bb-	.
16e	16aa	.
16gJJ)	16bb-JJ)	.
=13	=13	=13
*^	*	*
(16fLL	2f	(4aaSsS	.
16cc	.	.	.
16ff	.	.	.
16eeJJ	.	.	.
.	.	(cccq8	.
8ddL	.	8bb-L)	.
8cc	.	8ff 8aaJ	.
8b-	4f	8ee 8ggL	.
8aJ)	.	8ffJ)	.
*v	*v	*	*
=14	=14	=14
4.B- 4.f	4cc (4ee	.
.	8b- 8dd)	.
8r	8r	.
(8.B- 8.eL	8.dd (8.dddL	sf
16A) 16fJk	16cc 16cccJk)	.
=15	=15	=15
4A 4f	(16cccLL	.
.	16fff	.
.	16eee	.
.	16dddJJ	.
*^	*	*
(16B-LL	4B-	16ccc#LL	.
.	.	(eeeq8	.
16d	.	16ddd)	.
16g	.	16ccc	.
16b-JJ)	.	16bb-JJ	.
(16fLL	4c	16aaLL	.
16a	.	16ccc	.
16g	.	16bb-	.
16eJJ)	.	16ggJJ)	.
*v	*v	*	*
*clefF4	*	*
=16	=16	=16
[4F (4e	4b- (4gg	.
8F] 8f)	8a 8ff)	.
8r	8r	.
4r	(>4aaSss	.
=17	=17	=17
16r>g	4ddd/)	.
16d>LL (16f>	.	.
16e> 16g>	.	.
16f>JJ 16a>)	.	.
!	!LO:TX:b:i:t=m.d.	!
16r>g	4D<	.
16f> (16a>LL	.	.
16e> 16g#>	.	.
16f> 16a>JJ)	.	.
16r>g	8.dd 8.dddL	.
16f> (16a>LL	.	.
16e> 16g>	.	.
16d> 16f>JJ)	16dd 16dddJk	.
=18	=18	=18
16r>g	(>(>4dd/ 4ddd/	.
(16e> 16g>LL	.	.
16f> 16a>	.	.
16g> 16b->JJ)	.	.
16r>g	8cc#/ 8ccc#/))	.
16g> (16b->LL	.	.
16f#> 16a>	8raa	.
16g> 16b->JJ)	.	.
16r>g	8.ccc#SsSL	.
16g> (16b->LL	.	.
16f> 16a>	.	.
16e> 16g>JJ)	16dddJk	.
=19	=19	=19
16r>g	4eee/	.
16c#> (16e>LL	.	.
16d> 16f>	.	.
16e> 16g>JJ)	.	.
!	!LO:TX:b:i:t=m.d.	!
16r>g	4AA<	.
16e> (16g>LL	.	.
16d#> 16f#>	.	.
16e> 16g>JJ)	.	.
16r>g	8.ggL	.
16e> (16g>LL	.	.
16d> 16fn>	.	.
16c#X> 16e>JJ)	16ggJk	.
=20	=20	=20
16r>g	(>4gg/	.
(16d> 16f>LL	.	.
16e> 16g>	.	.
16f> 16a>JJ)	.	.
16r>g	8ff/)	.
(16f> 16a>LL	.	.
16e> 16g>	8raa	.
16d> 16f>JJ)	.	.
16r>g	(>4ffSSs/	.
(16d> 16f>LL	.	.
16c#> 16e>	.	.
16d> 16f>JJ)	.	.
=21	=21	=21
16r>g	4ddd/)	.
16B> (16d>LL	.	.
16cnX> 16e>	.	.
16d> 16f>JJ)	.	.
!	!LO:TX:i:b:t=m.d.	!
16r>g	4GG<	.
16d> (16f>LL	.	.
16c> 16e>	.	.
16B> 16d>JJ)	.	.
16r	8.ff 8.fffL	.
16BnX (16dLL	.	.
16A# 16c#	.	.
16B 16dJJ)	16ff 16fffJk	.
*clefG2	*	*
=22	=22	=22
16r	8ff (8fffL	<
(16cnX 16eLL	.	(
16B 16d#	8ee 8eeeJ)	(
16c 16eJJ)	.	(
16r	8ee (8eeeL	(
(16d 16fLL	.	(
16c# 16e	8dd 8dddJ)	(
16d) 16fJJ	.	(
16r	8dd (8dddL	(
(16e 16gLL	.	(
16d# 16f#	8cc 8cccJ)	(
16e) 16gJJ	.	[
=23	=23	=23
*^	*^	*
!	!	!	!LO:S:a	!
4g	2fnX	(8cccL>	4dd\	sf
.	.	[8bbJ)	.	.
(8a-z<L	.	(32bbLLL]	4ryy	.
.	.	32ccc	.	.
.	.	32ddd	.	.
.	.	32ccc	.	.
8g	.	32bb	.	.
.	.	32ccc	.	.
.	.	32ddd	.	.
.	.	32bbJJJ)	.	.
*	*	*v	*v	*
8ee	4e 4g	(16cccLL	.
.	.	16ddd	.
8ccJ)	.	16eee	.
.	.	16cccJJ)	.
=24	=24	=24	=24
!	!	!LO:S:a	!
.	.	(32bbnqLLL	.
.	.	32cccq	.
.	.	32dddqJJJ	.
!	!	!LO:S:a	!
4g 4dd	2f	(8cccL>)	f
.	.	[>8bbnXJ)	.
(8a-z<L	.	(32bbLLL]	.
.	.	32ccc	.
.	.	32ddd	.
.	.	32ccc	.
8g	.	32bb	.
.	.	32ccc	.
.	.	32ddd	.
.	.	32bbJJJ	.
8ee	4e 4g	32cccLLL	.
.	.	32ddd	.
.	.	32eee	.
.	.	32ddd	.
8ccJ)	.	32ccc	.
.	.	32bb	.
.	.	32aa	.
.	.	32ggJJJ)	.
*v	*v	*	*
=25	=25	=25
8f 8a	(32gg#LLL	.
.	32aa	.
.	32ccc	.
.	32bb	.
8r	32aa	.
.	32gg	.
.	32ff	.
.	32eeJJJ	.
4r	32ggLLL	.
.	32ff	.
.	32aa	.
.	32gg	.
.	32ff	.
.	32ee	.
.	32dd	.
.	32cc#JJJ	.
*clefF4	*	*
8F 8A 8d	32ddLLL	.
.	32ee	.
.	32ff	.
.	32ee	.
8r	32gg	.
.	32ff	.
.	32ee	.
.	32ddJJJ)	.
=26	=26	=26
8G 8c 8e	(32ccnXLLL	.
.	32dd	.
.	32cc	.
.	32b	.
8r	32cc	.
.	32g	.
.	32a	.
.	32bJJJ	.
4r	32ccLLL	.
.	32dd	.
.	32ee	.
.	32ff	.
.	32gg	.
.	32ff#	.
.	32gg	.
.	32ff#JJJ)	.
8G 8B 8f	(16gg'LL	pp
.	16ff'	.
8r	16ee'	.
.	16dd'JJ)	.
=27	=27	=27
8c 8e	8cc	.
*	*clefF4	*
8r	(8c	.
4r	8A 8fL	.
.	8G 8e	.
4r	8F 8A 8d	.
.	8E 8G 8cJ)	.
=28	=28	=28
*	*^	*
[4GGG [4GG	(4c	2D 2F 2G	sfp
16GGG] 16GGLL]	4B)	.	.
(32AAAL	.	.	.
32BBB	.	.	.
32CC	.	.	.
32DD	.	.	.
32EE	.	.	.
32FFJJJ)	.	.	.
(32GGLLL	4B	4D 4F 4G	.
32FF#	.	.	.
32GG	.	.	.
32AA	.	.	.
32GG	.	.	.
32FF	.	.	.
32EE	.	.	.
32DDJJJ)	.	.	.
*	*v	*v	*
=29	=29	=29
8CC	8E 8c	.
*	*clefG2	*
8r	(24csSSs<LL	.
.	24e	.
.	24gJJ)	.
24r	(24gLL	.
(24ALL	24fJJ)	.
24cJJ)	24r	.
24r	(24fLL	.
(24GLL	24eJJ)	.
24BJJ)	24r	.
24r	(24eLL	.
(24FLL	24dJJ)	.
24AJJ)	24r	.
24r	24dLL	.
(24ELL	24cJJ	.
24GJJ)	24r	.
*	*clefF4	*
=30	=30	=30
*	*^	*
[4GGG [4GG	(4c	2D 2F 2G	sfp
16GGG] 16GGLL]	4Bn)	.	.
(32AAL	.	.	.
32BB	.	.	.
32C	.	.	.
32D	.	.	.
32E	.	.	.
32FJJJ)	.	.	.
*	*v	*v	*
*	*clefG2	*
(32GLLL	4d 4f 4bnX	.
32F#	.	.
32G	.	.
32A	.	.
32G	.	.
32F	.	.
32E	.	.
32DJJJ)	.	.
=31	=31	=31
*^	*	*
4rc	2.C	8e 8cc	.
.	.	[8cz	.
!LO:S:b	!	!	!
(8B-XL	.	(16cLL]	.
.	.	32dL	.
.	.	32e	.
8GJ	.	32f	.
.	.	32g	.
.	.	32a	.
.	.	32b-XJJJ	pp
8EL	.	32ccLLL>	.
.	.	32b	.
.	.	32cc	.
.	.	32dd	.
8cJ)	.	32cc	.
.	.	32b-	.
.	.	32a	.
.	.	32gJJJ)	.
=32	=32	=32	=32
4c	2F	4aSsS	p
.	.	(ccq8	.
(8dL	.	(8b-L)	.
8c	.	8a	.
8B-	4F	8g	.
8AJ)	.	8fJ)	.
=33	=33	=33	=33
*	*	*^	*
(4A	4.C	(4f	4.c	.
8G)	.	8e)	.	.
8r	4.ryy	(8cL	4.ryy	.
4r	.	8B 8d	.	.
.	.	8B-) 8eJ	.	.
*v	*v	*	*	*
=34	=34	=34	=34
4A 4c	(16fLL	4f	.
.	16cc)	.	.
.	16cc'	.	.
.	16cc'JJ	.	.
4E 4c	(16ccLL	4g	.
.	16b-)	.	.
.	16b-'	.	.
.	16b-'JJ	.	.
4F 4c	(16b-LL	4f	.
.	16a)	.	.
.	16a'	.	.
.	16a'JJ	.	.
=35	=35	=35	=35
4.C 4.c	(8.aL	4f	.
.	32b-LL	.	.
.	32aJJJ)	.	.
.	8g	8e	.
!	!LO:S:b	!	!
8r	(24c'LL	4.ryy	.
.	24c#'	.	.
.	24d'JJ	.	.
4r	24e-'LL	.	.
.	24e'	.	.
.	24f'JJ	.	.
.	24f#'LL	.	.
.	24g'	.	.
.	24g#'JJ)	.	.
*	*v	*v	*
=36	=36	=36
*^	*	*
!LO:S:b	!	!	!
(24FLL	4F	4aS	.
24A	.	.	.
24c	.	.	.
24f	.	.	.
24e	.	.	.
24e-JJ)	.	.	.
4ryy	24r	(24ccLL>j	.
.	(24dLL	24b-JJ)	.
.	24fJJ)	24r	.
.	24r	(24b-LL	.
.	(24fLL	24aJJ)	.
.	24cJJ)	24r	.
4ryy	24r	(24aLL	.
.	(24B-LL	24gJJ)	.
.	24eJJ)	24r	.
.	24r	(24gLL	.
.	(24cLL	24fJJ)	.
.	24AJJ)	24r	.
*v	*v	*	*
*clefG2	*	*
=37	=37	=37
*Xtuplet	*	*
(24B-LL	(4dd	<
24d	.	(
24f	.	(
24b-	.	(
24f	.	(
24dJJ)	.	(
(24B-LL	4eeS	(
24c	.	(
24e	.	(
24g	.	(
24e	.	(
24cJJ)	.	[
(24ALL	32ggLLL	>
.	32ff	)
24c	.	)
.	32ee	)
24f	.	)
.	32ff	)
24a	32ee	)
.	32ff	)
24f	.	)
.	32gg	)
24cJJ)	.	)
.	32ffJJJ)	)
=38	=38	=38
(24B-LL	(32eeLLL	)
.	32dd	)
24d	.	)
.	32cc#	)
24f	.	)
.	32dd	)
24g	32ee	)
.	32dd	)
24f	.	)
.	32cc	)
24dJJ)	.	)
.	32b-JJJ)	]
*clefF4	*	*
(24CLL	(4aSsS	pp
24F	.	.
24A	.	.
24c	.	.
24A	.	.
(24FJJ)	.	.
24CLL	16ccLL	.
24G	.	.
.	16b-	.
24B-	.	.
24c	16g	.
24B-	.	.
.	16eJJ)	.
24GJJ)	.	.
=39	=39	=39
(24FLL	(4g	.
24B-	.	.
24c	.	.
24e	.	.
24c	.	.
24B-JJ)	.	.
(24FLL	8f)	.
24A	.	.
24c	.	.
24f	8r	.
24c	.	.
24B-JJ)	.	.
(24ALL	(8.ccL	.
24c	.	.
24B-	.	.
24A	.	.
24G	.	.
.	16ffJk)	.
24FJJ)	.	.
=40	=40	=40
(24CLL	(4ff	.
24G	.	.
24B-	.	.
24c	.	.
24B-	.	.
24GJJ)	.	.
(24CLL	4ee	.
24G	.	.
24B-	.	.
24c	.	.
24B-	.	.
24GJJ)	.	.
(24CLL	8.ffSSsL	.
24F	.	.
24A	.	.
24c	.	.
24A	.	.
.	16aaJk)	.
24FJJ)	.	.
=41	=41	=41
(24CLL	(4ccc	.
24E	.	.
24G	.	.
24c	.	.
24G	.	.
24EJJ)	.	.
(24CLL	16bbLL	.
24E	.	.
.	16ccc	.
24G	.	.
24c	16ddd	.
24G	.	.
.	16cccJJ	.
24EJJ)	.	.
(24CLL	16bb-LL	.
24F	.	.
.	16aa	.
24A	.	.
24c	16gg	.
24A	.	.
.	16ffJJ)	.
24FJJ)	.	.
=42	=42	=42
(24CLL	4ff	.
24G	.	.
24B-	.	.
24c	.	.
24B-	.	.
24GJJ)	.	.
(24CLL	(32eeLLL	.
.	32ff	.
24G	.	.
.	32ee	.
24B-	.	.
.	32dd	.
24c	32ee	.
.	32cc	.
24B-	.	.
.	32dd	.
24GJJ)	.	.
.	32eeJJJ	.
(24CLL	16.ffSSsLL	.
24F	.	.
24A	.	.
.	32ggk	.
24c	16.aaSsS	.
24A	.	.
24FJJ)	.	.
.	32bbJJk)	.
=43	=43	=43
(24CLL	(8dddL	.
24E	.	.
24G	.	.
24c	8cccJ)	.
24e	.	.
24dJJ)	.	.
*clefG2	*	*
(24cLL	24r	.
24e	(24bbLL	.
24g	24cccJJ)	.
24cc	24r	.
24c	(24dddLL	.
24eJJ	24cccJJ)	.
24dLL	24r	.
24f	(24cccLL	.
24cc	24bbnXJJ)	.
24e	24r	.
24g	(24cccLL	.
24ccJJ)	24bb-JJ)	.
=44	=44	=44
*^	*	*
(24fLL	2f	8.aaL	.
24a	.	.	.
24cc	.	.	.
24ff	.	.	.
24ee	.	.	.
.	.	16aasSsSJk	.
24ee-JJ	.	.	.
24ddLL	.	24r	.
24ff	.	(24cccLL	.
24ddJJ	.	24bb-JJ)	.
24ccLL	.	24r	.
24ee	.	(24bb-LL	.
24ccJJ	.	24aaJJ)	.
24b-LL	4f	24r	.
24dd	.	(24aaLL	.
24b-JJ	.	24ggJJ)	.
24aLL	.	24r	.
24cc	.	(24ggLL	.
24aJJ)	.	24ffJJ)	.
*v	*v	*	*
*clefF4	*	*
=45	=45	=45
*^	*	*
2f	(4.B-	4cc (4ee	.
.	.	4b- 4dd)	.
.	8A)	.	.
4f	(8.G# 8.BL	8.dd (8.dddL	sf
.	16A) 16cJk	16cc 16cccJk)	.
=46	=46	=46	=46
4ryy	4A 4c 4f	(16cccLK	.
.	.	8fff	sf>
.	.	32eeeLL	)
.	.	32dddJJJ)	)
*clefG2	*	*	*
8dL	4B-	(32ccc#LLL	)
.	.	32eee	)
.	.	32ddd	)
.	.	32ccc	)
8g	.	32bb-	)
.	.	32aa	)
.	.	32ccc	)
.	.	32bb-JJJ	]
8e	4c	32aaLLL	pp
.	.	32gg	.
.	.	32bb-	.
.	.	32gg	.
8b-J	.	32ff	.
.	.	32ee	.
.	.	32gg	.
.	.	32eeJJJ)	.
=47	=47	=47	=47
(4b-	4.f	4ee (4gg	.
8a)	.	16ff)	.
.	.	(16ccLL	.
8r	4.ryy	16ff	.
.	.	16ccJJ	.
4r	.	16b-LL	.
.	.	16a	.
.	.	16g	.
.	.	16fJJ)	.
*clefF4	*	*	*
=48	=48	=48	=48
*	*	*^	*
4C 4G	2BB-	(8fL	2ryy	sf
.	.	[8eJ)	.	.
(<8D-z<L	.	(32eLLL]	.	.
.	.	32f	.	.
.	.	32g	.	.
.	.	32f	.	.
8C	.	32e	.	.
.	.	32f	.	.
.	.	32g	.	.
.	.	32eJJJ)	.	.
8A)	4AA	(16fLL	4c	.
.	.	16g	.	.
8FJ	.	16a	.	.
.	.	16fJJ)	.	.
=49	=49	=49	=49	=49
4C 4G	2BB-	(8fL	2ryy	sf
.	.	[8eJ)	.	.
(<8D-z<L	.	(32eLLL]	.	.
.	.	32f	.	.
.	.	32g	.	.
.	.	32f	.	.
8C	.	32e	.	.
.	.	32f	.	.
.	.	32g	.	.
.	.	32eJJJ)	.	.
8A)	4AA	(<32fLLL	4c	.
.	.	32a	.	.
.	.	32cc	.	.
.	.	32b-	.	.
8FJ	.	32a	.	.
.	.	32g	.	.
.	.	32f	.	.
.	.	32e-JJJ)	.	.
*v	*v	*	*	*
*	*v	*v	*
=50	=50	=50
!	!LO:S:a	!
8BB- 8D	(32dLLL	.
.	32e-	.
.	32d	.
.	32c#	.
8r	32d	.
.	32e	.
.	32f	.
.	32f#JJJ	.
4r	32gLLL	.
.	32a	.
.	32b-	.
.	32cc	.
.	32dd	.
.	32ee	.
.	32ff	.
.	32ff#JJJ	.
*clefG2	*	*
8B- 8d 8g	32ggLLL	.
.	32aa	.
.	32bb-	.
.	32ccc	.
8r	32ddd	.
.	32eee	.
.	32fff	.
.	32dddJJJ)	.
=51	=51	=51
8c 8f 8a	(32cccLLL	.
.	32ddd	.
.	32ccc	.
.	32bb	.
8ryy	32ccc	.
.	32fff	.
.	32eee	.
.	32dddJJJ	.
4r	32cccLLL	.
.	32bb	.
.	32bb-	.
.	32aa	.
.	32gg	.
.	32ff	.
.	32ee	.
.	32ddJJJ)	.
*clefF4	*	*
4C 4E 4B-	(16cc'LL<	pp
.	16b-'	.
.	16a'	.
.	16g'JJ)	.
*	*clefF4	*
=52	=52	=52
*^	*	*
*	*	*^	*
8r	2FF	[2f	8r	.
(8AAL	.	.	(8FL	.
8D	.	.	8B-	.
8C	.	.	8A	.
8BB-	4ryy	8f]	8G	.
16FFL	.	(16cLL	8FJ)	.
16AAJJ)	.	16fJJ)	.	.
*	*	*v	*v	*
*	*	*clefG2	*
=53	=53	=53	=53
*	*	*	*^
!	!	!	!	!LO:DY:b=2
2G 2B- 2c	[4CC [4C	4f	sfp	sfp
*	*	*	*v	*v
.	16CC] 16CLL]	4e	.
!	!LO:S:a	!	!
.	(32DDL	.	.
.	32EE	.	.
.	32FF	.	.
.	32GG	.	.
.	32AA	.	.
.	32BB-JJJ)	.	.
!	!LO:S:a	!	!
4ryy	(32CLLL	4G 4B- 4c 4e	.
.	32BB	.	.
.	32C	.	.
.	32D	.	.
.	32C	.	.
.	32BB-	.	.
.	32AA	.	.
.	32GGJJJ)	.	.
*v	*v	*	*
=54	=54	=54
8FF	(24A 24c 24fLL	.
.	24A	.
.	24cJJ)	.
8r	(24fLL	.
.	24a	.
.	24ccJJ)	.
*tuplet	*	*
24r	(24ccLL	.
(24e-LL	24f	.
24dJJ)	24b-JJ)	.
24r	(24b-LL	.
(24dLL	24enX	.
24cJJ)	24aJJ)	.
24r	(24aLL	.
(24cLL	24d	.
24B-JJ)	24gJJ)	.
24r	(24gLL	.
(24B-LL	24c	.
24AJJ)	24fJJ)	.
=55	=55	=55
*	*^	*^
!	!	!	!	!LO:DY:b=2
[4CC [4C	2G< 2B-< 2c<	(4f/	sfp	sfp
*	*	*	*v	*v
16CC] 16CLL]	.	4e/)	.
!LO:S:a	!	!	!
(32DL	.	.	.
32E	.	.	.
32F	.	.	.
32G	.	.	.
32A	.	.	.
32B-JJJ)	.	.	.
!LO:S:a	!	!	!
(32cLLL	4cc 4ee	4g 4b-	.
32B	.	.	.
32c	.	.	.
32d	.	.	.
32c	.	.	.
32B-	.	.	.
32A	.	.	.
32GJJJ)	.	.	.
*	*v	*v	*
=56	=56	=56
(48FLLL	16r	p
48A	.	.
48cJJJ)	.	.
16r	(48fLLL	.
.	48a	.
.	48ccJJJ)	.
*clefG2	*	*
(48fLLL	16r	.
48a	.	.
48ccJJJ)	.	.
16r	(48ffLLL	.
.	48aa	.
.	48cccJJJ)	.
16r	(48cccLLL	.
.	48aa	.
.	48bb-JJJ)	.
(48cc#LLL	16r	.
48dd	.	.
48ffJJJ)	.	.
16r	(48bb-LLL	.
.	48gg#	.
.	48aaJJJ)	.
(48bLLL	16r	.
48cc	.	.
48eeJJJ)	.	.
16r	(48aaLLL	.
.	48ff#	.
.	48ggJJJ)	.
(48aLLL	16r	.
48b-	.	.
48ddJJJ)	.	.
16r	(48ggLLL	.
.	48ee	.
.	48ffJJJ)	.
(48g#LLL<	16r	.
48a	.	.
48ccJJJ)	.	.
=57	=57	=57
4.c 4.g 4.b-	(4ff	sf
.	32eeLLL)	.
.	(32cc'	.
.	32dd'	.
.	32ee'	.
8r	32ff'	.
.	32gg'	.
.	32aa'	.
.	32bb-'JJJ)	.
4c 4e 4g 4b-	(32cccLLL	.
.	32bb	.
.	32ccc	.
.	32ddd	.
.	32ccc	.
.	32bb-	.
.	32aa	.
.	32ggJJJ)	.
=58	=58	=58
8f 8a	8ff	.
8r	8r	.
4r	16ccsSSsLL	pp
.	(32dd'L	.
.	32ee'	.
.	32ff'	.
.	32gg'	.
.	32aa'	.
.	32bb-'JJJ)	.
4c 4e 4g 4b-	(32cccLLL	.
.	32bb	.
.	32ccc	.
.	32ddd	.
.	32ccc	.
.	32bb-	.
.	32aa	.
.	32ggJJJ)	.
=59	=59	=59
*^	*	*
(4b-	2.f	[4.gg	.
4cc	.	.	.
.	.	(16.ggSSsLL]	<
.	.	32aaJJk	.
4dd-)	.	16cccLL	[ >
.	.	16bb-	.
.	.	16gg	.
.	.	16eeJJ)	]
=60	=60	=60	=60
(>4b- (4dd-	4.f	(4ee 4gg	pp
8a)> 8cc)	.	8ff)	.
8r	4.ryy	8r	.
4r	.	4r	.
*v	*v	*	*
*clefF4	*	*
=61	=61	=61
8C' 8E' 8G' 8c'	8g' 8b-' 8cc' 8ee' 8gg'	pp
8r	8r	.
8FF' 8AA' 8C' 8F'	8a' 8cc' 8ff'	.
8r;	8r;	.
==	==	==
*-	*-	*-
!!!ENC: Craig Stuart Sapp
!!!END: 2004/04/06/
!!!EEV: 2019/06/29/
!!!RDF**kern: > = above
!!!RDF**kern: < = below
